X:1
T: Johnny Pringle
T: Miss Jane Stewart of Pittyvaich's Strathspey
C:William Marshall
R:Strathspey
Q: 128
K:G
M:4/4
L:1/16
|:D2|DG3 Gg3 d3G B4|DG3 Gg3 d3G Bg3|DG3 Gg3 d3G B4|c3A B3G A3G E3F|
DG3 Gg3 d3G B4|DG3 Gg3 d3G Bg3|DG3 Gg3 d3G B4|c3A B3G A3G E3F|
Gg3 g3a bagf g4|e3f g3a b3e gb3|e3f g3e dB3 B3d|e3g d3B cBAG E3F|
Gg3 g3a bagf g4|e3f g3a b3e gb3|e3f agfe dB3 B3d|e3g d3B cBAG E2:|
